!!!OTL: Blue Bonnets 
!!!id: HA039
**kern
*clefF4
*k[]
*C:
*M2/2
{8cc
16dd
16ee
8dd
8cc
4dd
8g
16a
16b
=2
8cc
8b
8a
8g
8a
8g
8f
8e}
=3yy
{8.f
16e
8f
8g
8f
16g
16a
8g
8f
=4
8e
16f
16g
8f
8e
4d
4c}
=5yy
{8cc
16dd
16ee
8dd
8cc
4dd
4g
=6
8.a
16cc
8.b
16dd
8.cc
16ee
4g}
=7yy
{8.a
16cc
8.b
16dd
8.cc
16ee
8.dd
16ff
=8
4ee
8.dd
16cc
2cc}
=9yy
{8cc
16dd
16ee
8dd
8cc
4.gg
8b
=10
8cc
8b
8a
8g
4.dd
8b}
=11yy
{8.a
16g
8a
8b
4cc
8b
8a
=12
4g
8.f
16e
4d
4c}
=13yy
{8cc
8b-
8a
8g
8f
8g
8a
8f
=14
8dd
8cc
8b
8a
8g
8a
8b
8g}
=15yy
{8.a
16cc
8.b
16dd
8.cc
16ee
8.dd
16ff
=16
4ee
8.dd
16cc
2cc}
==
*-
!!!minrhy: 16
!!!meter: 2/2 
!!!cut: Blue Bonnets 
!!!key: HA039  16  C 2/2 
!!!bem: Vorschlge
!!!fog: a--b--aw-c--aw'bw-dw-c--
!! Haydn: Volksliedbearbeitungen, Bd1
